svg/iron.svg

<?xml version="1.0" encoding="UTF-8" standalone="no"?>
<!-- Created with Inkscape (http://www.inkscape.org/) -->

<svg
   width="32"
   height="32"
   viewBox="0 0 8.4666666 8.4666668"
   version="1.1"
   id="svg5"
   inkscape:version="1.1.2 (b8e25be8, 2022-02-05)"
   sodipodi:docname="iron.svg"
   xmlns:inkscape="http://www.inkscape.org/namespaces/inkscape"
   xmlns:sodipodi="http://sodipodi.sourceforge.net/DTD/sodipodi-0.dtd"
   xmlns="http://www.w3.org/2000/svg"
   xmlns:svg="http://www.w3.org/2000/svg"
   xmlns:rdf="http://www.w3.org/1999/02/22-rdf-syntax-ns#"
   xmlns:cc="http://creativecommons.org/ns#">
  <sodipodi:namedview
     id="namedview7"
     pagecolor="#ffffff"
     bordercolor="#111111"
     borderopacity="1"
     inkscape:pageshadow="0"
     inkscape:pageopacity="0"
     inkscape:pagecheckerboard="1"
     inkscape:document-units="mm"
     showgrid="true"
     width="32mm"
     units="px"
     objecttolerance="10"
     guidetolerance="10000"
     inkscape:snap-perpendicular="false"
     inkscape:snap-tangential="true"
     inkscape:zoom="34.90625"
     inkscape:cx="16"
     inkscape:cy="18.291853"
     inkscape:window-width="2560"
     inkscape:window-height="1301"
     inkscape:window-x="0"
     inkscape:window-y="25"
     inkscape:window-maximized="0"
     inkscape:current-layer="layer1"
     gridtolerance="10000">
    <inkscape:grid
       type="xygrid"
       id="grid9"
       units="px"
       empspacing="2" />
  </sodipodi:namedview>
  <defs
     id="defs2" />
  <g
     inkscape:label="Layer 1"
     inkscape:groupmode="layer"
     id="layer1">
    <g
       aria-label="Fe"
       id="text7781"
       style="font-size:5.29165px;line-height:1.25;font-family:'Source Code Pro';-inkscape-font-specification:'Source Code Pro';stroke-width:0.132291;fill:#000000;fill-opacity:1"
       transform="translate(0.53043512,-1.0583334)">
      <path
         d="m 1.5875,6.8791667 -0.0023,-3.175 h 2.1166666 v 0.5291666 h -1.5875 V 4.7625 H 3.1726963 V 5.2916667 H 2.1143629 l 0.0023,1.5875 z"
         id="path1865"
         sodipodi:nodetypes="ccccccccccc"
         style="fill:#000000;fill-opacity:1" />
    </g>
    <path
       id="path4487"
       style="fill:#000000;fill-opacity:1;stroke:none;stroke-width:0.264583"
       d="M 5.2926982,3.1749999 A 1.0583332,1.3229165 0 0 0 4.2343649,4.4979166 1.0583332,1.3229165 0 0 0 5.2926982,5.8208332 H 5.8218649 L 6.0864482,5.2916666 h -0.79375 A 0.52916663,0.79374999 0 0 1 4.7945376,4.7624999 h 0.9963216 0.031006 0.5074626 A 1.0583332,1.3229165 0 0 0 6.3510313,4.4979166 1.0583332,1.3229165 0 0 0 5.292698,3.1749999 Z m 0,0.5291667 A 0.52916663,0.79374999 0 0 1 5.7913759,4.2333332 H 4.7945376 A 0.52916663,0.79374999 0 0 1 5.2926982,3.7041666 Z" />
  </g>
  <metadata
     id="metadata33">
    <rdf:RDF>
      <cc:Work
         rdf:about="">
        <cc:license
           rdf:resource="http://creativecommons.org/licenses/by-sa/4.0/" />
      </cc:Work>
      <cc:License
         rdf:about="http://creativecommons.org/licenses/by-sa/4.0/">
        <cc:permits
           rdf:resource="http://creativecommons.org/ns#Reproduction" />
        <cc:permits
           rdf:resource="http://creativecommons.org/ns#Distribution" />
        <cc:requires
           rdf:resource="http://creativecommons.org/ns#Notice" />
        <cc:requires
           rdf:resource="http://creativecommons.org/ns#Attribution" />
        <cc:permits
           rdf:resource="http://creativecommons.org/ns#DerivativeWorks" />
        <cc:requires
           rdf:resource="http://creativecommons.org/ns#ShareAlike" />
      </cc:License>
    </rdf:RDF>
  </metadata>
</svg>

<svg width="32" height="32" viewBox="0 0 8.467 8.467" xmlns="http://www.w3.org/2000/svg"><g style="font-size:5.29165px;line-height:1.25;font-family:'Source Code Pro';-inkscape-font-specification:'Source Code Pro';stroke-width:.132291;fill:#000;fill-opacity:1"><path d="m1.587 6.88-.002-3.176h2.117v.53H2.114v.529h1.059v.529H2.114l.003 1.587z" style="fill:#000;fill-opacity:1" transform="translate(.53 -1.058)" aria-label="Fe"/></g><path style="fill:#000;fill-opacity:1;stroke:none;stroke-width:.264583" d="M5.293 3.175a1.058 1.323 0 0 0-1.059 1.323A1.058 1.323 0 0 0 5.293 5.82h.529l.264-.53h-.793a.53.794 0 0 1-.498-.529h1.534a1.058 1.323 0 0 0 .022-.264 1.058 1.323 0 0 0-1.058-1.323Zm0 .53a.53.794 0 0 1 .498.528h-.996a.53.794 0 0 1 .498-.529Z"/></svg>
